components/icon/svg/24/transport_rb.svg

<svg xmlns="http://www.w3.org/2000/svg" viewBox="0 0 24 24"><path fill="#3f434c" d="M9.1 19.5c0 .3.2.5.5.5h5c.3 0 .5-.2.5-.5s-.2-.5-.5-.5h-5c-.3 0-.5.2-.5.5zm7.2-14.8l-.3-.1c-2.6-.8-5.4-.8-8 0l-.3.1c-.7.3-1.2 1-1.3 1.8L6 16c0 1.7 1.3 3 3 3h.6c-.3 0-.5-.2-.5-.5s.2-.5.5-.5h5c.3 0 .5.2.5.5s-.2.5-.5.5h.4c1.7 0 3-1.3 3-3l-.4-9.5c-.1-.8-.6-1.5-1.3-1.8zM8.9 6.4c.2-.1.6-.1.9-.1 1.5-.2 3-.2 4.5 0 .3 0 .6.1.9.2.5.1.8.6.7 1.1l-.5 4.6c-.1.5-.5.9-1 .9H9.8c-.5 0-.9-.4-1-.8l-.6-4.7c-.1-.5.2-1 .7-1.2zm.8 9.6h-1c-.3 0-.5-.2-.5-.5s.2-.5.5-.5h1c.3 0 .5.2.5.5s-.3.5-.5.5zm5.7 0h-1c-.3 0-.5-.2-.5-.5s.2-.5.5-.5h1c.3 0 .5.2.5.5s-.2.5-.5.5z"/></svg>

<?xml version="1.0" encoding="utf-8"?>
<!-- Generator: Adobe Illustrator 24.1.2, SVG Export Plug-In . SVG Version: 6.00 Build 0)  -->
<svg version="1.1" xmlns="http://www.w3.org/2000/svg" xmlns:xlink="http://www.w3.org/1999/xlink" x="0px" y="0px"
	 viewBox="0 0 24 24" style="enable-background:new 0 0 24 24;" xml:space="preserve">
<style type="text/css">
	.st0{fill:#3F434C;}
</style>
<g id="guides">
</g>
<g id="Ebene_1">
	<path class="st0" d="M9.1,19.5c0,0.3,0.2,0.5,0.5,0.5h5c0.3,0,0.5-0.2,0.5-0.5S14.9,19,14.6,19h-5C9.3,19,9.1,19.2,9.1,19.5z"/>
	<path class="st0" d="M16.3,4.7L16,4.6c-2.6-0.8-5.4-0.8-8,0L7.7,4.7C7,5,6.5,5.7,6.4,6.5L6,16c0,1.7,1.3,3,3,3h0.6
		c-0.3,0-0.5-0.2-0.5-0.5S9.3,18,9.6,18h5c0.3,0,0.5,0.2,0.5,0.5S14.9,19,14.6,19H15c1.7,0,3-1.3,3-3l-0.4-9.5
		C17.5,5.7,17,5,16.3,4.7z M8.9,6.4c0.2-0.1,0.6-0.1,0.9-0.1c1.5-0.2,3-0.2,4.5,0c0.3,0,0.6,0.1,0.9,0.2c0.5,0.1,0.8,0.6,0.7,1.1
		l-0.5,4.6c-0.1,0.5-0.5,0.9-1,0.9H9.8c-0.5,0-0.9-0.4-1-0.8L8.2,7.6C8.1,7.1,8.4,6.6,8.9,6.4z M9.7,16h-1c-0.3,0-0.5-0.2-0.5-0.5
		S8.4,15,8.7,15h1c0.3,0,0.5,0.2,0.5,0.5S9.9,16,9.7,16z M15.4,16h-1c-0.3,0-0.5-0.2-0.5-0.5s0.2-0.5,0.5-0.5h1
		c0.3,0,0.5,0.2,0.5,0.5S15.7,16,15.4,16z"/>
</g>
</svg>
